assets/images/fast-efficient.svg

<?xml version="1.0" encoding="UTF-8"?>
<svg width="282px" height="213px" viewBox="0 0 282 213" version="1.1" xmlns="http://www.w3.org/2000/svg" xmlns:xlink="http://www.w3.org/1999/xlink">
    <!-- Generator: Sketch 60 (88103) - https://sketch.com -->
    <title>Group 8</title>
    <desc>Created with Sketch.</desc>
    <defs>
        <path d="M253.691406,122.558594 C253.691406,130.501342 251.998715,137.548797 248.613281,143.701172 C245.227848,149.853546 240.621774,154.866517 234.794922,158.740234 C228.96807,162.613952 222.343787,165.299472 214.921875,166.796875 L214.921875,177.933594 C214.921875,180.142733 213.131014,181.933594 210.921875,181.933594 L190.601562,181.933594 C188.392424,181.933594 186.601562,180.142733 186.601562,177.933594 L186.601562,166.308594 L186.601562,166.308594 C177.747352,164.355459 171.258141,161.93548 162.431641,156.445312 C157.480843,153.365869 152.582276,149.397864 147.735941,144.541299 C146.191218,142.993309 146.176007,140.491712 147.701794,138.925055 L163.835852,122.358835 C165.377174,120.776243 167.909606,120.742775 169.492205,122.284089 C169.560317,122.350424 169.626042,122.419166 169.689255,122.490184 C175.184003,128.663429 179.779772,132.738966 183.476562,134.716797 C189.943383,138.176629 195.390591,139.84375 202.226562,139.84375 C208.216176,139.84375 212.854801,138.492852 216.142578,135.791016 C219.430355,133.089179 221.074219,129.362003 221.074219,124.609375 C221.074219,120.963523 219.967459,117.854831 217.753906,115.283203 C215.540354,112.711576 212.724626,110.546884 209.306641,108.789062 C205.888655,107.031241 200.989615,104.882825 194.609375,102.34375 L191.582031,101.171875 C183.704388,98.0468594 177.015001,94.8242354 171.513672,91.5039062 C166.012342,88.1835771 161.324889,83.6751587 157.451172,77.9785156 C153.577455,72.2818726 151.640625,65.2018652 151.640625,56.7382812 C151.640625,49.5116826 153.154282,43.0664346 156.181641,37.4023438 C159.209,31.7382529 163.359349,27.0670757 168.632812,23.3886719 C173.906276,19.7102681 179.8958,17.0898516 186.601562,15.5273438 L186.601562,4 C186.601562,1.790861 188.392424,4.05812251e-16 190.601562,0 L210.921875,0 C213.131014,-4.05812251e-16 214.921875,1.790861 214.921875,4 L214.921875,15.8203125 L214.921875,15.8203125 C223.945134,17.8019617 234.143028,23.6158438 245.515556,33.2619586 C247.200288,34.6909363 247.407616,37.2150973 245.978636,38.8998283 C245.901707,38.9905259 245.820771,39.0777474 245.73607,39.161233 L231.185113,53.5033243 C229.661168,55.0054054 227.224986,55.0421337 225.656448,53.586681 C216.764904,45.3361853 208.238797,41.2109375 200.078125,41.2109375 C195.585915,41.2109375 191.875015,42.350249 188.945312,44.6289062 C186.01561,46.9075635 184.550781,49.9674287 184.550781,53.8085938 C184.550781,56.9987139 185.592437,59.7330615 187.675781,62.0117188 C189.759125,64.290376 192.34699,66.2272056 195.439453,67.8222656 C198.531917,69.4173257 202.910128,71.386707 208.574219,73.7304688 C209.355473,73.9908867 210.527336,74.4466113 212.089844,75.0976562 C220.358114,78.4830898 227.389294,81.9824038 233.183594,85.5957031 C238.977894,89.2090024 243.844381,94.0592144 247.783203,100.146484 C251.722025,106.233754 253.691406,113.704383 253.691406,122.558594 Z" id="path-1"></path>
        <filter x="-25.2%" y="-10.4%" width="151.9%" height="131.9%" filterUnits="objectBoundingBox" id="filter-2">
            <feOffset dx="0" dy="10" in="SourceAlpha" result="shadowOffsetOuter1"></feOffset>
            <feGaussianBlur stdDeviation="8" in="shadowOffsetOuter1" result="shadowBlurOuter1"></feGaussianBlur>
            <feColorMatrix values="0 0 0 0 0.392156863   0 0 0 0 0.584313725   0 0 0 0 1  0 0 0 0.25 0" type="matrix" in="shadowBlurOuter1"></feColorMatrix>
        </filter>
        <path d="M40.0908293,12 L97.9476245,12 C100.26722,12 102.147624,13.8804041 102.147624,16.2 C102.147624,17.0596274 101.88385,17.8985539 101.391917,18.6035081 L60.9605895,76.5426939 L60.9605895,76.5426939 L94.2606676,76.5426939 C96.5802635,76.5426939 98.4606676,78.423098 98.4606676,80.7426939 C98.4606676,81.7428562 98.1037502,82.71019 97.4541287,83.4706613 L21.634704,172.227727 C20.1280892,173.991427 17.4769753,174.199836 15.7132755,172.693221 C14.3369587,171.517522 13.8687216,169.592299 14.5513596,167.915838 L37.1673468,112.374233 L37.1673468,112.374233 L6.03389949,112.374233 C3.71430354,112.374233 1.83389949,110.493829 1.83389949,108.174233 C1.83389949,107.676442 1.92239262,107.182615 2.09524869,106.715799 L36.1521785,14.7415659 C36.7623277,13.0937956 38.3337212,12 40.0908293,12 Z" id="path-3"></path>
        <filter x="-25.6%" y="-10.6%" width="149.4%" height="122.1%" filterUnits="objectBoundingBox" id="filter-4">
            <feOffset dx="0" dy="10" in="SourceAlpha" result="shadowOffsetOuter1"></feOffset>
            <feGaussianBlur stdDeviation="8" in="shadowOffsetOuter1" result="shadowBlurOuter1"></feGaussianBlur>
            <feColorMatrix values="0 0 0 0 0.392156863   0 0 0 0 0.584313725   0 0 0 0 1  0 0 0 0.35 0" type="matrix" in="shadowBlurOuter1"></feColorMatrix>
        </filter>
    </defs>
    <g id="Page-1" stroke="none" stroke-width="1" fill="none" fill-rule="evenodd">
        <g id="Desktop-HD-Copy-6" transform="translate(-798.000000, -1182.000000)">
            <g id="Group-9" transform="translate(326.000000, 1180.000000)">
                <g id="Group-8" transform="translate(485.000000, 8.000000)">
                    <g id="$">
                        <use fill="black" fill-opacity="1" filter="url(#filter-2)" xlink:href="#path-1"></use>
                        <use fill="#FFFFFF" fill-rule="evenodd" xlink:href="#path-1"></use>
                    </g>
                    <g id="Path-3">
                        <use fill="black" fill-opacity="1" filter="url(#filter-4)" xlink:href="#path-3"></use>
                        <use fill="#4082FF" fill-rule="evenodd" xlink:href="#path-3"></use>
                    </g>
                </g>
            </g>
        </g>
    </g>
</svg>

<svg xmlns="http://www.w3.org/2000/svg" xmlns:xlink="http://www.w3.org/1999/xlink" width="282" height="213"><defs><path d="M253.69 122.56c0 7.943-1.693 15-5.078 21.143s-7.992 11.165-13.818 15.04-12.45 6.56-19.873 8.057v11.137a4 4 0 0 1-4 4h-20.32a4 4 0 0 1-4-4V166.31c-8.854-1.953-15.343-4.373-24.17-9.863-4.95-3.08-9.85-7.047-14.696-11.904a4 4 0 0 1-.034-5.616l16.134-16.566a4 4 0 0 1 5.853.131c5.495 6.173 10.09 10.25 13.787 12.227 6.467 3.46 11.914 5.127 18.75 5.127 6 0 10.628-1.35 13.916-4.053s4.932-6.43 4.932-11.182c0-3.646-1.107-6.755-3.32-9.326s-5.03-4.736-8.447-6.494-8.317-3.906-14.697-6.445l-3.027-1.172c-7.878-3.125-14.567-6.348-20.068-9.668s-10.19-7.83-14.062-13.525-5.81-12.777-5.81-21.24c0-7.227 1.514-13.672 4.54-19.336a39.63 39.63 0 0 1 12.451-14.014c5.273-3.678 11.263-6.3 17.97-7.86V4a4 4 0 0 1 4-4h20.32a4 4 0 0 1 4 4v11.82c9.023 1.982 19.22 7.796 30.594 17.442a4 4 0 0 1 .221 5.899l-14.55 14.342a4 4 0 0 1-5.529.083c-8.892-8.25-17.418-12.376-25.578-12.376-4.492 0-8.203 1.14-11.133 3.418s-4.395 5.34-4.395 9.18c0 3.2 1.042 5.924 3.125 8.203s4.67 4.215 7.764 5.81 7.47 3.564 13.135 5.908c.78.26 1.953.716 3.516 1.367 8.268 3.385 15.3 6.885 21.094 10.498s10.66 8.464 14.6 14.55 5.908 13.558 5.908 22.412z" id="A"/><filter x="-25.2%" y="-10.4%" width="151.9%" height="131.9%" id="B"><feOffset dy="10" in="SourceAlpha"/><feGaussianBlur stdDeviation="8"/><feColorMatrix values="0 0 0 0 0.392156863 0 0 0 0 0.584313725 0 0 0 0 1 0 0 0 0.25 0"/></filter><path d="M40.09 12h57.857a4.2 4.2 0 0 1 3.444 6.604l-40.43 57.94h33.3a4.2 4.2 0 0 1 3.193 6.928l-75.82 88.757a4.2 4.2 0 0 1-7.083-4.312l22.616-55.542H6.034a4.2 4.2 0 0 1-3.939-5.658l34.057-91.974A4.2 4.2 0 0 1 40.091 12z" id="C"/><filter x="-25.6%" y="-10.6%" width="149.4%" height="122.1%" id="D"><feOffset dy="10" in="SourceAlpha"/><feGaussianBlur stdDeviation="8"/><feColorMatrix values="0 0 0 0 0.392156863 0 0 0 0 0.584313725 0 0 0 0 1 0 0 0 0.35 0"/></filter></defs><g transform="translate(13 6)" fill-rule="evenodd"><use fill="#000" filter="url(#B)" xlink:href="#A"/><use fill="#fff" xlink:href="#A"/><use fill="#000" filter="url(#D)" xlink:href="#C"/><use fill="#4082ff" xlink:href="#C"/></g></svg>
